X:1
T:Mug of Brown Ale, The
T:Jug of Brown Ale, The
R:jig
N:Played in Ador or Edor
Z:id:hn-jig-122
M:6/8
L:1/8
K:Ador
eAA fAA|gfg age|dBA G2A|BAB dBd|
eAA fAA|gfg age|dBd gdB|BAG A2d:|
efg a2g|aba age|dBd g2d|gba ged|
efg a2g|aba age|dge dBG|BAG A2d:|
</abc>
<abc>
